X:1
T:Inchinatevi
T:Inchinatevi
T:Gio.Girolamo Kapsperger 
C:Gio.Girolamo Kapsperger
%%score [ 1 2 ] { 3 | 4 }
L:1/8
Q:1/4=120
M:6/4
K:C
V:1 treble nm="Soprano" snm="S"
V:2 bass nm="Bass" snm="B"
V:3 treble nm="BC" snm="BC"
V:4 bass 
V:1
 z2 B2 c2 d2 E2 ^F2 | G4 G2 z2 c2 d2 | e2 G2 A2 B4 B2 |[M:4/4] z2 de e3 d | c3 d B2 B2 | %5
w: In- chi- na- te- vi'o|fio- ri, sa- lu-|ta- te la'her- bet- te,|ci- gli, gro- chi'e|a- ma- ran- thi,|
w: Re- spi- ra- te- gl'in-|tor- no, ven- ti-|la- te- l'a- ga- ra,|pla- ci- dis- si-|mi'e leg- gie- ri,|
w: Tre- mo- la- te- gli'al|pie- de, lu- sin-|ga- te- l'al pro- na,|tran- qui- lis- si-|mi'e ri- den- ti,|
w: E voi pla- ci- de'au-|ret- te, ar- ri-|gi- te- gl'il se- no,|de te- so- ri'on-|de l'Au- ro- ra,|
 z2 GG AB c2 | c3 B c2 c2 :: z2 cd e2 dc | B d2 c/B/ A2 A2 | z4 e4- | e2 d2 d4- | d2 G2 G4- | %12
w: e' Nar- ci- * s'i'e|mol- l'A- chan- ti,|che su'l tro- no reg|al spun- ta la ro- sa,|mez-|* z'a- per-|* te mez-|
w: ze- fi- ret- * ti|lu- sin- gie- ri,|che Re- gi- na di|fior con no- bil van- to,|d'o-|* ro'ha'l cer-|* chio'e d'o-|
w: fiu- mi gar- * ru-|li'e tor- ren- ti,|che del po- pol de|fior de- gna Re- gi- na,|ha|_ per guar-|* di'a- cu-|
w: col- li'e mon- * ti'e|pra- t'in- do- ra,|e Re- gi- na de|fior tur- bi- ni'e ven- ti,|nul-|* la sti-|* mi'e giel|
 G2 A2 A4 | G8 :| %14
w: * z'a- sco-|sa.|
w: * stro'il nan-|to.|
w: * ta spi-|na.|
w: _ non fon-|ti.|
V:2
 z2 G,2 A,2 B,2 C,2 D,2 | E,4 E,2 z2 A,2 B,2 | C2 E,2 ^F,2 G,4 G,2 |[M:4/4] z2 G,G, E,3 E, | %4
w: In- chi- na- te- vi'o|fio- ri, sa- lu-|ta- te la'her- bet- te,|ci- li, gio chi'e|
w: Re- spi- ra- te- gl'in-|tor- no, ven- ti-|la- te- l'a- ga- ra,|pla- ci- dis- si-|
w: Tre- mo- la- te- gli'al|pie- de, lu- sin-|ga te- l'al pro- na,|tran- qui- lis- si-|
w: E voi pla- ci- de'au-|ret- te, ar- ri-|gi- te- gl'il se- no,|de te- so- ri'on-|
 A,3 ^F, G,2 G,2 | z2 E,E, F,2 E,2 | F,D, G,2 C,2 C,2 :: z2 A,,B,, C,2 C,D, | %8
w: a- ma- ran- thi,|e' Nar- ci- si'e|mol- * l'Ar- chan- ti,|che su'il tro- no reg|
w: mi'e leg- gia- ri,|ze- fi- ret- ti|lu- * sin- gie- ri,|che Re- gi- na di|
w: mi'e ri- den- ti,|fiu- mi gar- ru-|li'e _ tor- ren- ti,|che del po- pol de|
w: de l'Au- ro- ra,|col- li'e mon- ti'e|pra- * t'in- do- ra,|e Re- gi- na de|
 E, B,,2 A,,/G,,/ D,2 D,2 | A,,2 B,,2 C,2 D,2 | E,2 ^F,2 G,2 A,2 | B,2 C2 E,2 D,C, | B,,2 C,2 D,4 | %13
w: al- spun- ta la ro- sa,|mez- * * *|z'a- per- * *|* te mez- * *|* z'a- sco-|
w: fior con no- bil van- to||ro'ha'l cer- * *|* chio'e d'o- * *|* stro'il nan-|
w: fior de- gna Re- gi- na,|ha _ _ _|_ per guar- *|* di'a- cu- * *|* ta spi-|
w: fior tur- bi- ni'e ven- ti,|nul- * * *|* la sti- *|* mi'e giel _ _|_ non fon-|
 G,,8 :| %14
w: sa.|
w: to|
w: na.|
w: ti.|
V:3
 z2 [Bd]2 [EAc]2 [Gd]2 [EGc]2 [^FA]2 | [GB]4 [EG]2 z2 [Ec]2 [GB]2 | [EG]2 [GB]2 [DA]2 [DB]4 [DB]2 | %3
[M:4/4] z2 [GB]2 [EB]4 | [Ec]2 [DA]2 [Bd]4 | z2 [EG]2 [Ac]2 [Gc]2 | [Ac]2 [DB]2 [EGc]2 [EGc]2 :: %7
 z2 [Ec][GB] [Ec]3 [FA] | [GB] [Gd]3 [^FAd]4 | [Ec]2 [GB]2 [Ec]2 [^FA]2 | %10
 [B,G]2 [DA]2 [Gd]2 [Ec]2 | [DG]2 [EG]2 [GB]4 | [DG]2 [Gc]2 G2 ^F2 | [DG]8 :| %14
V:4
 z2 G,2 A,2 B,2 C,2 D,2 | E,4 E,2 z2 A,2 B,2 | C2 E,2 ^F,2 G,4 G,2 |[M:4/4] z2 G,2 E,3 E, | %4
 A,3 ^F, G,4 | z2 E,2 F,2 E,2 | F,D, G,2 C,2 C,2 :: z2 A,,B,, C,2 C,D, | E, B,,2 A,,/G,,/ D,4 | %9
 A,,2 B,,2 C,2 D,2 | E,2 ^F,2 G,2 A,2 | B,2 C2 E,2 D,C, | B,,2 C,2 [D,A,]4 | [G,,B,]8 :| %14

